X:1
T:Title
%%score ( 1 2 ) { 3 | 4 }
L:1/8
Q:1/4=95
M:4/4
K:Bb
V:1 treble nm="Grand Piano, Soprano"
V:2 treble 
V:3 bass nm="Choir Pad, A Soul Winner for Jesus"
V:4 bass 
V:1
 [DF]2 [DF]>[DF] [DF]>[DB] [Fd]2 | (3[Fd][Fd][Fd] [GB]>[Gc] [GB]>[EG] [DF]2 | %2
w: By~James~W.~Ferrill * * * * *||
 [DF]2 [DF]2 [FB]2 [DB]2 | [Fd]2 [Fc]6 | [EF]2 [DF]>[DF] [DF]>[DB] [Fd]2 | %5
w: |||
 (3[Fd][Fd][Fd] [GB]>[Gc] [GB]>[EG] [DF]2 | .B2 z2 z4 | [CA]2 [DB]6 | [DB]2 [Fd]6 | %9
w: ||||
 (3[DB][Ec][Fd] [Bf]4 [Fd]2 | [^Fc]2 [GB]6 | (3[Gd][GB][FA] [DF]4 [DB]2 | [DF]2 [DF]2 [FB]2 [DB]2 | %13
w: ||||
 [Fd]2 [Fc]6 | [DB]2 [Fd]6 | (3[DB][Ec][Fd] [Bf]4 [Fd]2 | [^Fc]2 [GB]6 | %17
w: ||||
 (3[Gc][GB][EG] [DF]4 [DB]2 | .B2 z2 z4 | [CA]2 [DB]6- | [DB]2 z2 z4 |] %21
w: ||||
V:2
 x8 | x8 | x8 | x8 | x8 | x8 | F-[F_A] [EG]2 [Ec]2 [DB]2 | x8 | x8 | x8 | x8 | x8 | x8 | x8 | x8 | %15
 x8 | x8 | x8 | F-[F_A] [EG]2 [Ec]2 [DB]2 | x8 | x8 |] %21
V:3
 B,2 B,>B, B,>F, B,2 | (3B,B,B, B,>B, B,>B, B,2 | B,2 B,2 D2 B,2 | B,2 A,6 | A,2 B,>B, B,>F, B,2 | %5
 (3B,B,B, B,>B, B,>B, B,2 | B,2 B,2 B,2 B,2 | F,2 F,6 | B,2 B,2 (3B,B,B, B,2 | B,2 D2 D2 B,2 | %10
 B,2 B,2 (3B,B,B, B,2 | B,2 B,2 B,2 B,2 | B,2 B,2 D2 B,2 | B,2 A,6 | B,2 B,2 (3B,B,B, B,2 | %15
 B,2 D2 D2 B,2 | B,2 B,2 (3B,B,B, B,2 | B,2 B,2 B,2 F,2 | B,2 B,2 B,2 B,2 | F,2 F,6- | F,2 z2 z4 |] %21
V:4
 B,,2 B,,>B,, B,,>B,, B,,2 | (3B,,B,,B,, E,>E, E,>E, B,,2 | B,,2 B,,2 [B,,B,]2 z2 | z2 F,6 | %4
 F,2 B,,>B,, B,,>B,, B,,2 | (3B,,B,,D, E,>E, E,>G, z2 | D,2 E,2 C,2 F,2 | F,,2 B,,6 | %8
 B,,2 B,,2 (3B,,B,,B,, B,,2 | B,,2 [B,,B,]2 [B,,B,]2 B,,2 | D,2 E,2 (3E,E,E, E,2 | %11
 E,2 B,,2 B,,2 B,,2 | D,2 B,,2 B,,2 z2 | z2 F,6 | B,,2 B,,2 (3B,,B,,B,, B,,2 | %15
 B,,2 [B,,B,]2 [B,,B,]2 B,,2 | D,2 E,2 (3E,E,E, E,2 | E,2 B,,2 B,,2 B,,2 | D,2 E,2 C,2 F,2 | %19
 F,,2 B,,6- | B,,2 z2 z4 |] %21

